svg/color/drm.svg

<?xml version="1.0" encoding="UTF-8" ?>
<!DOCTYPE svg PUBLIC "-//W3C//DTD SVG 1.1//EN" "http://www.w3.org/Graphics/SVG/1.1/DTD/svg11.dtd">
<svg width="250pt" height="250pt" viewBox="0 0 250 250" version="1.1" xmlns="http://www.w3.org/2000/svg">
<g id="#ffffffff">
<path fill="#ffffff" opacity="1.00" d=" M 0.00 0.00 L 250.00 0.00 L 250.00 250.00 L 0.00 250.00 L 0.00 0.00 M 127.54 40.34 C 127.55 56.90 127.51 73.47 127.56 90.03 C 127.52 91.63 127.40 93.22 127.22 94.81 C 114.12 94.97 100.91 93.90 87.92 96.02 C 73.49 98.96 60.30 107.87 52.26 120.23 C 37.55 141.46 40.69 172.81 59.18 190.82 C 69.75 201.62 84.84 207.98 100.00 207.52 C 114.60 207.65 128.60 201.13 139.16 191.29 C 148.99 180.67 155.55 166.63 155.49 151.99 C 155.36 145.65 155.78 139.29 155.25 132.96 C 146.00 132.80 136.69 132.37 127.47 133.21 C 127.55 139.48 127.55 145.75 127.50 152.02 C 127.40 164.16 118.31 175.73 106.49 178.61 C 100.69 180.28 94.45 179.59 88.84 177.55 C 76.55 172.97 68.47 158.98 71.29 146.06 C 73.16 135.81 81.12 127.03 91.08 124.03 C 96.84 122.02 103.02 122.83 108.99 122.67 C 136.25 122.79 163.51 122.72 190.76 122.61 C 190.67 113.96 186.55 105.59 179.54 100.48 C 172.92 95.06 163.96 94.64 155.79 94.79 C 155.19 85.24 155.71 75.66 155.42 66.09 C 154.48 52.05 141.68 40.06 127.54 40.34 M 178.41 42.51 C 172.06 45.39 167.60 52.01 167.47 59.00 C 167.35 65.59 167.48 72.18 167.45 78.76 C 175.20 79.81 183.03 78.97 190.79 78.48 C 199.48 76.73 206.48 67.89 205.51 58.94 C 205.64 50.58 198.76 43.16 190.81 41.39 C 186.68 41.05 182.31 40.86 178.41 42.51 Z" />
</g>
<g id="#02aef0ff">
<path fill="#02aef0" opacity="1.00" d=" M 127.54 40.34 C 141.68 40.06 154.48 52.05 155.42 66.09 C 155.71 75.66 155.19 85.24 155.79 94.79 C 163.96 94.64 172.92 95.06 179.54 100.48 C 186.55 105.59 190.67 113.96 190.76 122.61 C 163.51 122.72 136.25 122.79 108.99 122.67 C 103.02 122.83 96.84 122.02 91.08 124.03 C 81.12 127.03 73.16 135.81 71.29 146.06 C 68.47 158.98 76.55 172.97 88.84 177.55 C 94.45 179.59 100.69 180.28 106.49 178.61 C 118.31 175.73 127.40 164.16 127.50 152.02 C 127.55 145.75 127.55 139.48 127.47 133.21 C 136.69 132.37 146.00 132.80 155.25 132.96 C 155.78 139.29 155.36 145.65 155.49 151.99 C 155.55 166.63 148.99 180.67 139.16 191.29 C 128.60 201.13 114.60 207.65 100.00 207.52 C 84.84 207.98 69.75 201.62 59.18 190.82 C 40.69 172.81 37.55 141.46 52.26 120.23 C 60.30 107.87 73.49 98.96 87.92 96.02 C 100.91 93.90 114.12 94.97 127.22 94.81 C 127.40 93.22 127.52 91.63 127.56 90.03 C 127.51 73.47 127.55 56.90 127.54 40.34 Z" />
</g>
<g id="#f87d1fff">
<path fill="#f87d1f" opacity="1.00" d=" M 178.41 42.51 C 182.31 40.86 186.68 41.05 190.81 41.39 C 198.76 43.16 205.64 50.58 205.51 58.94 C 206.48 67.89 199.48 76.73 190.79 78.48 C 183.03 78.97 175.20 79.81 167.45 78.76 C 167.48 72.18 167.35 65.59 167.47 59.00 C 167.60 52.01 172.06 45.39 178.41 42.51 Z" />
</g>
</svg>

<?xml version="1.0" encoding="utf-8"?>
<!-- Generator: Adobe Illustrator 26.0.3, SVG Export Plug-In . SVG Version: 6.00 Build 0)  -->
<svg version="1.1" id="Layer_1" xmlns="http://www.w3.org/2000/svg" xmlns:xlink="http://www.w3.org/1999/xlink" x="0px" y="0px"
	 viewBox="0 0 250 250" style="enable-background:new 0 0 250 250;" xml:space="preserve">
<style type="text/css">
	.st0{fill:#02AEF0;}
	.st1{fill:#F87D1F;}
</style>
<g id="_x23_02aef0ff">
	<path class="st0" d="M127.5,40.3c14.1-0.3,26.9,11.7,27.9,25.7c0.3,9.6-0.2,19.2,0.4,28.7c8.2-0.2,17.1,0.3,23.8,5.7
		c7,5.1,11.1,13.5,11.2,22.1c-27.2,0.1-54.5,0.2-81.8,0.1c-6,0.2-12.2-0.7-17.9,1.4c-10,3-17.9,11.8-19.8,22
		c-2.8,12.9,5.3,26.9,17.5,31.5c5.6,2,11.9,2.7,17.7,1.1c11.8-2.9,20.9-14.4,21-26.6c0.1-6.3,0.1-12.5,0-18.8
		c9.2-0.8,18.5-0.4,27.8-0.2c0.5,6.3,0.1,12.7,0.2,19c0.1,14.6-6.5,28.7-16.3,39.3c-10.6,9.8-24.6,16.4-39.2,16.2
		c-15.2,0.5-30.2-5.9-40.8-16.7c-18.5-18-21.6-49.4-6.9-70.6c8-12.4,21.2-21.3,35.7-24.2c13-2.1,26.2-1,39.3-1.2
		c0.2-1.6,0.3-3.2,0.3-4.8C127.5,73.5,127.6,56.9,127.5,40.3z"/>
</g>
<g id="_x23_f87d1fff">
	<path class="st1" d="M178.4,42.5c3.9-1.6,8.3-1.5,12.4-1.1c7.9,1.8,14.8,9.2,14.7,17.5c1,9-6,17.8-14.7,19.5
		c-7.8,0.5-15.6,1.3-23.3,0.3c0-6.6-0.1-13.2,0-19.8C167.6,52,172.1,45.4,178.4,42.5z"/>
</g>
</svg>
